.gitbook/assets/Group 1337.svg

<svg width="31" height="31" viewBox="0 0 31 31" fill="none" xmlns="http://www.w3.org/2000/svg">
<rect x="0.75" y="0.75" width="29.5" height="29.5" rx="7.25" fill="#261F00" stroke="#9B7C00" stroke-width="1.5"/>
<path fill-rule="evenodd" clip-rule="evenodd" d="M8.53333 11.2128C8.53333 9.73299 9.77241 8.53334 11.3009 8.53334H19.6991C21.2276 8.53334 22.4667 9.73299 22.4667 11.2128V15.8375C22.4667 16.1334 22.2188 16.3733 21.9131 16.3733H18.8013L17.3954 18.8075C17.2921 18.9864 17.0924 19.0925 16.8811 19.081C16.6697 19.0694 16.4837 18.9422 16.4018 18.7532L14.4945 14.3502L13.4845 16.099C13.3866 16.2684 13.2018 16.3733 13.0014 16.3733H9.64036V19.7872C9.64036 20.6751 10.3838 21.3949 11.3009 21.3949H19.6991C20.6162 21.3949 21.3596 20.6751 21.3596 19.7872V19.6341C21.3596 19.3381 21.6074 19.0982 21.9131 19.0982C22.2188 19.0982 22.4667 19.3381 22.4667 19.6341V19.7872C22.4667 21.267 21.2276 22.4667 19.6991 22.4667H11.3009C9.77241 22.4667 8.53333 21.267 8.53333 19.7872V15.8375C8.53333 15.5415 8.78114 15.3016 9.08684 15.3016H12.6767L14.0826 12.8674C14.1859 12.6885 14.3856 12.5824 14.5969 12.5939C14.8083 12.6055 14.9943 12.7327 15.0762 12.9217L16.9835 17.3247L17.9935 15.5759C18.0914 15.4065 18.2762 15.3016 18.4766 15.3016H21.3596V11.2128C21.3596 10.3249 20.6162 9.60514 19.6991 9.60514H11.3009C10.3838 9.60514 9.64036 10.3249 9.64036 11.2128V11.8253C9.64036 12.1212 9.39254 12.3612 9.08684 12.3612C8.78114 12.3612 8.53333 12.1212 8.53333 11.8253V11.2128Z" fill="#F2D664"/>
</svg>

<svg xmlns="http://www.w3.org/2000/svg" width="31" height="31" fill="none" viewBox="0 0 31 31"><rect width="29.5" height="29.5" x=".75" y=".75" fill="#261F00" stroke="#9B7C00" stroke-width="1.5" rx="7.25"/><path fill="#F2D664" fill-rule="evenodd" d="M8.533 11.213c0-1.48 1.24-2.68 2.768-2.68h8.398c1.529 0 2.768 1.2 2.768 2.68v4.625a.545.545 0 0 1-.554.535h-3.112l-1.406 2.434a.558.558 0 0 1-.514.274.553.553 0 0 1-.48-.328l-1.906-4.403-1.01 1.749a.557.557 0 0 1-.484.274h-3.36v3.414c0 .888.743 1.608 1.66 1.608h8.398c.917 0 1.66-.72 1.66-1.608v-.153c0-.296.248-.536.554-.536.306 0 .554.24.554.536v.153c0 1.48-1.24 2.68-2.768 2.68h-8.398c-1.529 0-2.768-1.2-2.768-2.68v-3.95c0-.296.248-.535.554-.535h3.59l1.406-2.435a.558.558 0 0 1 .514-.273.553.553 0 0 1 .48.328l1.906 4.403 1.01-1.75a.557.557 0 0 1 .484-.273h2.883v-4.09c0-.887-.744-1.607-1.66-1.607h-8.4c-.916 0-1.66.72-1.66 1.608v.612a.545.545 0 0 1-.553.536.545.545 0 0 1-.554-.536v-.612Z" clip-rule="evenodd"/></svg>
